X: 1
T: the Rowan Tree
O: trad. Scotland, Ireland
R: Slow air
Z: 2014 John Chambers <jc:trillian.mit.edu>
S: page from Concord Slow Scottish Session collection, handwritten by Barbara McOwen (1999)
M: 4/4
K: A
AB |\
"A"c3c "E7"c2B2 | "A"c2e2 e2a2 | "D"f3e "Bm"f2a2 | "E"f2e2- "E7"e2AB | "A"c3c "E7"c2B2 |
"A"c2e2 "D"f2e2 | "A"e2c2 "E7"B3A | "A"A6 |]| e2 | "A"e2a2 a3g | "D"g2f2 "Bm"f2a2 |
"A"e3f "F#m"fedc | "B7"c2B2 "E7"B2AB | "A"c3c "(g7)"c2B2 | "F#m"c2e2 "D"f2e2 | "A"e2c2 "E7"B3A | "A"A6 |]
